public/svg/faq.svg

<svg width="581" height="764" viewBox="0 0 581 764" fill="none" xmlns="http://www.w3.org/2000/svg">
<g filter="url(#filter0_f_32_8)">
<path d="M32.787 278.072C31.9256 281.508 31.1566 284.954 30.4411 288.409C27.0612 304.755 14.6533 318.574 -2.29905 320.576C-25.9389 323.37 -49.5872 321.997 -71.9496 316.423C-79.6706 314.515 -87.6486 313.139 -95.6304 311.859C-102.511 310.768 -108.566 312.528 -113.119 318.558C-117.666 324.608 -117.046 330.225 -113.156 335.485C-110.1 339.642 -107.076 343.886 -103.728 347.823C-66.8271 391.044 -20.9575 423.472 35.4578 443.318C61.7148 453.005 85.6444 530.685 107.104 554.452C146.613 598.244 194.35 630.896 257.48 642.706C335.407 657.277 412.098 621.452 450.859 551.998C477.852 503.58 484.63 453.432 478.924 402.803C469.179 316.255 430.542 244.468 364.049 188.006C323.949 153.936 276.845 131.442 219.051 129.636C163.331 127.896 115.545 147.174 77.6021 189.714C54.1845 215.937 40.641 246.095 32.787 278.072Z" fill="#949CFF" fill-opacity="0.2"/>
</g>
<g filter="url(#filter1_f_32_8)">
<path d="M114.105 403.571C113.537 405.837 113.03 408.11 112.558 410.388C110.329 421.168 102.147 430.282 90.967 431.602C75.377 433.444 59.7817 432.538 45.0342 428.863C39.9424 427.605 34.6811 426.697 29.4173 425.853C24.88 425.133 20.8866 426.294 17.8842 430.27C14.8856 434.26 15.2945 437.965 17.8594 441.434C19.8753 444.175 21.8694 446.974 24.0768 449.57C48.4124 478.073 78.6622 499.459 115.867 512.546C133.182 518.935 148.963 570.163 163.115 585.837C189.171 614.716 220.652 636.25 262.285 644.038C313.676 653.647 364.251 630.021 389.813 584.219C407.614 552.288 412.084 519.217 408.321 485.828C401.894 428.752 376.415 381.41 332.564 344.175C306.119 321.707 275.056 306.872 236.942 305.681C200.196 304.534 168.682 317.247 143.66 345.302C128.216 362.595 119.285 382.483 114.105 403.571Z" fill="black" fill-opacity="0.6"/>
</g>
<path d="M63.5445 354.472C65.4421 356.047 67.3759 357.57 69.3333 359.063C78.5935 366.124 83.3224 377.832 79.0878 388.632C73.1838 403.694 64.6367 417.478 53.8458 429.197C50.1304 433.249 46.6683 437.618 43.2661 442.019C40.3412 445.817 39.4908 449.996 41.8336 454.587C44.1912 459.181 47.9518 460.537 52.5476 459.819C56.1739 459.262 59.8447 458.752 63.4261 457.953C102.792 449.086 138.231 431.51 169.12 403.726C183.782 390.934 240.772 400.465 262.799 394.889C303.373 384.631 339.56 366.002 367.537 331.711C402.067 289.38 404.262 232.281 372.835 187.619C350.917 156.501 321.342 136.994 287.408 124.84C229.403 104.058 171.373 105.174 114.01 127.743C79.4043 141.348 49.8595 162.723 29.9534 196.888C10.7632 229.826 7.46594 264.468 22.1045 300.355C31.1185 322.494 45.832 339.912 63.5445 354.472Z" fill="url(#paint0_linear_32_8)" fill-opacity="0.5"/>
<g filter="url(#filter2_b_32_8)">
<path d="M217.323 246.568C215.421 248.156 213.482 249.692 211.519 251.198C202.235 258.32 197.494 270.128 201.739 281.021C207.659 296.211 216.228 310.114 227.047 321.933C230.772 326.019 234.244 330.426 237.655 334.865C240.587 338.695 241.44 342.91 239.091 347.541C236.727 352.174 232.957 353.542 228.349 352.818C224.713 352.256 221.033 351.741 217.442 350.935C177.973 341.993 142.441 324.266 111.471 296.244C96.7706 283.342 39.6316 292.955 17.5473 287.33C-23.1333 276.985 -59.4152 258.196 -87.4655 223.611C-122.086 180.917 -124.287 123.329 -92.7774 78.2843C-70.8021 46.8993 -41.149 27.2257 -7.1268 14.9675C51.0303 -5.99335 109.213 -4.86698 166.725 17.8954C201.422 31.6171 231.044 53.1748 251.002 87.6323C270.243 120.853 273.549 155.792 258.872 191.987C249.834 214.315 235.082 231.883 217.323 246.568Z" fill="url(#paint1_linear_32_8)" fill-opacity="0.5"/>
</g>
<defs>
<filter id="filter0_f_32_8" x="-216.305" y="29.5283" width="797.101" height="716.391" filterUnits="userSpaceOnUse" color-interpolation-filters="sRGB">
<feFlood flood-opacity="0" result="BackgroundImageFix"/>
<feBlend mode="normal" in="SourceGraphic" in2="BackgroundImageFix" result="shape"/>
<feGaussianBlur stdDeviation="50" result="effect1_foregroundBlur_32_8"/>
</filter>
<filter id="filter1_f_32_8" x="-84.217" y="205.61" width="593.773" height="540.546" filterUnits="userSpaceOnUse" color-interpolation-filters="sRGB">
<feFlood flood-opacity="0" result="BackgroundImageFix"/>
<feBlend mode="normal" in="SourceGraphic" in2="BackgroundImageFix" result="shape"/>
<feGaussianBlur stdDeviation="50" result="effect1_foregroundBlur_32_8"/>
</filter>
<filter id="filter2_b_32_8" x="-130" y="-15" width="413" height="383" filterUnits="userSpaceOnUse" color-interpolation-filters="sRGB">
<feFlood flood-opacity="0" result="BackgroundImageFix"/>
<feGaussianBlur in="BackgroundImageFix" stdDeviation="7.5"/>
<feComposite in2="SourceAlpha" operator="in" result="effect1_backgroundBlur_32_8"/>
<feBlend mode="normal" in="SourceGraphic" in2="effect1_backgroundBlur_32_8" result="shape"/>
</filter>
<linearGradient id="paint0_linear_32_8" x1="204" y1="110" x2="204" y2="460" gradientUnits="userSpaceOnUse">
<stop stop-color="#5057A7"/>
<stop offset="1" stop-color="#2A146B"/>
</linearGradient>
<linearGradient id="paint1_linear_32_8" x1="76.5" y1="0" x2="76.5" y2="353" gradientUnits="userSpaceOnUse">
<stop stop-color="#949CFF"/>
<stop offset="1" stop-color="#4F15F7"/>
</linearGradient>
</defs>
</svg>

<svg xmlns="http://www.w3.org/2000/svg" width="581" height="764" fill="none"><g filter="url(#a)"><path fill="#949CFF" fill-opacity=".2" d="M32.787 278.072a256 256 0 0 0-2.346 10.337c-3.38 16.346-15.788 30.165-32.74 32.167-23.64 2.794-47.288 1.421-69.65-4.153-7.722-1.908-15.7-3.284-23.681-4.564-6.881-1.091-12.936.669-17.489 6.699-4.547 6.05-3.927 11.667-.037 16.927 3.056 4.157 6.08 8.401 9.428 12.338 36.9 43.221 82.77 75.649 139.186 95.495 26.257 9.687 50.186 87.367 71.646 111.134 39.509 43.792 87.246 76.444 150.376 88.254 77.927 14.571 154.618-21.254 193.379-90.708 26.993-48.418 33.771-98.566 28.065-149.195-9.745-86.548-48.382-158.335-114.875-214.797-40.1-34.07-87.204-56.564-144.998-58.37-55.72-1.74-103.506 17.538-141.449 60.078-23.418 26.223-36.961 56.381-44.815 88.358"/></g><g filter="url(#b)"><path fill="#000" fill-opacity=".6" d="M114.105 403.571a169 169 0 0 0-1.547 6.817c-2.229 10.78-10.411 19.894-21.591 21.214-15.59 1.842-31.185.936-45.933-2.739-5.092-1.258-10.353-2.166-15.617-3.01-4.537-.72-8.53.441-11.533 4.417-2.998 3.99-2.59 7.695-.025 11.164 2.016 2.741 4.01 5.54 6.218 8.136 24.335 28.503 54.585 49.889 91.79 62.976 17.315 6.389 33.096 57.617 47.248 73.291 26.056 28.879 57.537 50.413 99.17 58.201 51.391 9.609 101.966-14.017 127.528-59.819 17.801-31.931 22.271-65.002 18.508-98.391-6.427-57.076-31.906-104.418-75.757-141.653-26.445-22.468-57.508-37.303-95.622-38.494-36.746-1.147-68.26 11.566-93.282 39.621-15.444 17.293-24.375 37.181-29.555 58.269"/></g><path fill="url(#c)" fill-opacity=".5" d="M63.545 354.472a180 180 0 0 0 5.788 4.591c9.26 7.061 13.99 18.769 9.755 29.569-5.904 15.062-14.451 28.846-25.242 40.565-3.716 4.052-7.178 8.421-10.58 12.822-2.925 3.798-3.775 7.977-1.432 12.568 2.357 4.594 6.118 5.95 10.714 5.232 3.626-.557 7.297-1.067 10.878-1.866 39.366-8.867 74.805-26.443 105.694-54.227 14.662-12.792 71.652-3.261 93.679-8.837 40.574-10.258 76.761-28.887 104.738-63.178 34.53-42.331 36.725-99.43 5.298-144.092-21.918-31.118-51.493-50.625-85.427-62.779-58.005-20.782-116.035-19.666-173.398 2.903-34.606 13.605-64.15 34.98-84.057 69.145-19.19 32.938-22.487 67.58-7.848 103.467 9.014 22.139 23.727 39.557 41.44 54.117"/><g filter="url(#d)"><path fill="url(#e)" fill-opacity=".5" d="M217.323 246.568a180 180 0 0 1-5.804 4.63c-9.284 7.122-14.025 18.93-9.78 29.823 5.92 15.19 14.489 29.093 25.308 40.912 3.725 4.086 7.197 8.493 10.608 12.932 2.932 3.83 3.785 8.045 1.436 12.676-2.364 4.633-6.134 6.001-10.742 5.277-3.636-.562-7.316-1.077-10.907-1.883-39.469-8.942-75.001-26.669-105.971-54.691-14.7-12.902-71.84-3.289-93.924-8.914-40.68-10.345-76.962-29.134-105.012-63.719-34.621-42.694-36.822-100.282-5.312-145.327C-70.802 46.9-41.15 27.226-7.127 14.967c58.157-20.96 116.34-19.834 173.852 2.928 34.697 13.722 64.319 35.28 84.277 69.737 19.241 33.221 22.547 68.16 7.87 104.355-9.038 22.328-23.79 39.896-41.549 54.581"/></g><defs><filter id="a" width="797.101" height="716.391" x="-216.305" y="29.528" color-interpolation-filters="sRGB" filterUnits="userSpaceOnUse"><feFlood flood-opacity="0" result="BackgroundImageFix"/><feBlend in="SourceGraphic" in2="BackgroundImageFix" result="shape"/><feGaussianBlur result="effect1_foregroundBlur_32_8" stdDeviation="50"/></filter><filter id="b" width="593.773" height="540.546" x="-84.217" y="205.61" color-interpolation-filters="sRGB" filterUnits="userSpaceOnUse"><feFlood flood-opacity="0" result="BackgroundImageFix"/><feBlend in="SourceGraphic" in2="BackgroundImageFix" result="shape"/><feGaussianBlur result="effect1_foregroundBlur_32_8" stdDeviation="50"/></filter><filter id="d" width="413" height="383" x="-130" y="-15" color-interpolation-filters="sRGB" filterUnits="userSpaceOnUse"><feFlood flood-opacity="0" result="BackgroundImageFix"/><feGaussianBlur in="BackgroundImageFix" stdDeviation="7.5"/><feComposite in2="SourceAlpha" operator="in" result="effect1_backgroundBlur_32_8"/><feBlend in="SourceGraphic" in2="effect1_backgroundBlur_32_8" result="shape"/></filter><linearGradient id="c" x1="204" x2="204" y1="110" y2="460" gradientUnits="userSpaceOnUse"><stop stop-color="#5057A7"/><stop offset="1" stop-color="#2A146B"/></linearGradient><linearGradient id="e" x1="76.5" x2="76.5" y1="0" y2="353" gradientUnits="userSpaceOnUse"><stop stop-color="#949CFF"/><stop offset="1" stop-color="#4F15F7"/></linearGradient></defs></svg>
